X: 138
T:Tink-a-Tink,aka. JaW.138
M:2/4
L:1/8
Q:300
C:"Clarinett Primo", Untitled in MS
S:James Winder Ms, Lancashire, 1835-41
R:Country Dance
O:England
A:Wyresdale,Lancashire
H:1/8
Z:vmp.Chris Partington, Aug 2004
K:C
c2g>e|c2g>e|f>gf>e|d>cB2|c2g>e|c2g>e|f>dc>B|c2-c2:|!
|:g2c'>b|a>gf>e|d>ef>g|e2c2|g2c'>b|a>gf>e|d>fB>d|c2-c2:|]
